X:263
M:3/4
L:1/4
K:E
z G G | A3 | G B B | c3 | B B e | d3 | e2 z | |: B B B | c2 B | (B A) G | B3 | G G G | G2 G | (G F) E | F3 | B B B | c2 B | (B A) G | B3 | z !sintro!B e | d3 | e3 !eintro!:|   z G G | A3 | G B B | c3 | B B e | d3 | e2 z |]
